svg/u1f468_200d_1f527.svg

<svg viewBox="0 0 128 128" xmlns="http://www.w3.org/2000/svg">
  <g id="shirt">
    <linearGradient id="SVGID_1_" gradientTransform="matrix(1 0 0 -1 0 128)" gradientUnits="userSpaceOnUse" x1="50.005" x2="50.005" y1="32.3001" y2="-3.1308">
      <stop offset="3.200000e-03" stop-color="#303F9F"/>
      <stop offset="0.4718" stop-color="#273492"/>
      <stop offset="1" stop-color="#1A237E"/>
    </linearGradient>
    <path d="M96,120.76v3.2H4v-3.2c0-7.94,4.68-13.79,11.87-17.82c8.9-5,21.65-7.22,34.13-7.24 s25.15,2.49,34.02,7.54C91.29,107.37,96,113.21,96,120.76z" fill="url(#SVGID_1_)"/>
  </g>
  <g id="neck_1_">
    <path d="M50,92.33h-9.08v9.98c0,4.51,3.7,8.17,8.26,8.17h1.65c4.56,0,8.26-3.66,8.26-8.17v-9.98 C59.09,92.33,50,92.33,50,92.33z" fill="#E59600"/>
  </g>
  <path d="M104.2,104.61l-4.04,19.35h1.53h1.53h9.02h1.5h1.5v-3.2C115.25,114.01,110.98,108.62,104.2,104.61z" fill="#1B2B8F"/>
  <g id="lapels">
    <polygon id="undershirt" fill="#F5F5F5" points="59.31,104.52 39.41,104.52 47.31,123.96 52.35,123.96 "/>
    <g>
      <linearGradient id="SVGID_2_" gradientTransform="matrix(1 0 0 -1 0 128)" gradientUnits="userSpaceOnUse" x1="30.6406" x2="41.2453" y1="28.7494" y2="2.796">
        <stop offset="0" stop-color="#5C6BC0"/>
        <stop offset="1" stop-color="#3949AB"/>
      </linearGradient>
      <polygon fill="url(#SVGID_2_)" points="40.88,95.93 33.1,96.83 25.1,114.08 35.98,109.79 45.53,123.96 46.74,123.96 47.22,123.96 48.25,123.96 "/>
    </g>
    <g>
      <linearGradient id="SVGID_3_" gradientTransform="matrix(1 0 0 -1 0 128)" gradientUnits="userSpaceOnUse" x1="69.0202" x2="61.2063" y1="29.9726" y2="2.7633">
        <stop offset="0" stop-color="#5C6BC0"/>
        <stop offset="1" stop-color="#3949AB"/>
      </linearGradient>
      <polygon fill="url(#SVGID_3_)" points="66.91,96.83 59.12,95.93 51.76,123.96 52.79,123.96 53.53,123.96 54.76,123.96 64.81,109.96 74.91,114.08 "/>
    </g>
  </g>
  <linearGradient id="wrench_1_" gradientTransform="matrix(1 0 0 -1 0 128)" gradientUnits="userSpaceOnUse" x1="110.1252" x2="98.8694" y1="75.4869" y2="4.9754">
    <stop offset="0" stop-color="#90A4AE"/>
    <stop offset="0.2674" stop-color="#889DA8"/>
    <stop offset="0.5844" stop-color="#78909C"/>
    <stop offset="1" stop-color="#607D8B"/>
  </linearGradient>
  <path id="wrench" d="M121.82,56.71c-0.34-0.6-0.92-0.88-1.49-0.88c-0.76,0-1.5,0.49-1.67,1.38 l-1.46,7.9c-0.1,0.53-0.44,0.99-0.93,1.22l-8.08,3.87c-0.23,0.11-0.48,0.17-0.73,0.17c-0.46,0-0.9-0.18-1.23-0.53l-6.16-6.5 c-0.37-0.39-0.53-0.94-0.44-1.47l1.46-7.9c0.21-1.14-0.69-2-1.68-2c-0.37,0-0.75,0.12-1.09,0.4c-2.95,2.45-5.12,5.97-5.89,10.12 c-1.09,5.9,0.91,11.61,4.82,15.33c1.76,1.68,2.6,4.1,2.16,6.49l-7.33,39.66h1.02h1.02h6.24h1.02h1.02l6.99-37.82 c0.44-2.39,2.09-4.35,4.33-5.29c4.98-2.08,8.89-6.69,9.98-12.6C124.47,64.11,123.7,60.04,121.82,56.71z" fill="url(#wrench_1_)"/>
  <g id="hand_1_">
    <linearGradient id="SVGID_4_" gradientTransform="matrix(1 0 0 -1 0 128)" gradientUnits="userSpaceOnUse" x1="86.7116" x2="111.8949" y1="20.5441" y2="20.5441">
      <stop offset="0" stop-color="#FFB300"/>
      <stop offset="0.5" stop-color="#FFCA28"/>
    </linearGradient>
    <path d="M94.5,117.31l-1.9,2.15c0,0-5.68-1.21-5.01-4.5c0.16-0.78,1.56-2.44,1.56-2.44 s-2.85-2.35-2.4-3.94c0.45-1.57,3.17-2.79,3.17-2.79s-2.11-1.26-1.28-3.63c0.57-1.62,3.53-2.16,3.53-2.16s-2.76-4.05,2.85-4.97 c1.77-0.29,5.74,0.3,9.3,2.93s5.19,4.21,6.83,7.67c2.5,5.25-1.92,14.25-5.31,14.33C103.02,120.02,94.5,117.31,94.5,117.31z" fill="url(#SVGID_4_)"/>
  </g>
  <g id="face_1_">
    <g id="ears_1_">
      <path d="M77.27,50.23H69.9H29.98h-7.37c-5.89,0-10.71,5.13-10.71,11.41s4.82,11.41,10.71,11.41h7.37H69.9 h7.37c5.89,0,10.71-5.14,10.71-11.41S83.16,50.23,77.27,50.23z" fill="#E59600"/>
    </g>
    <g id="head_1_">
      <path d="M49.94,10.86L49.94,10.86L49.94,10.86c-17.4,0-33.52,18.61-33.52,45.4 c0,26.64,16.61,39.81,33.52,39.81S83.46,82.9,83.46,56.26C83.46,29.47,67.34,10.86,49.94,10.86z" fill="#FFCA28"/>
    </g>
    <g id="eyes_1_">
      <ellipse cx="34.13" cy="58.6" fill="#404040" rx="4.93" ry="5.1"/>
      <ellipse cx="65.28" cy="58.6" fill="#404040" rx="4.93" ry="5.1"/>
    </g>
    <g id="eyebrows_1_">
      <path d="M25.93,50.52c0,0,0.13-0.19,0.38-0.51c0.07-0.08,0.12-0.16,0.22-0.26 c0.11-0.11,0.23-0.22,0.36-0.33c0.14-0.12,0.28-0.24,0.43-0.38c0.15-0.13,0.31-0.22,0.48-0.35c0.17-0.12,0.34-0.24,0.53-0.35 c0.19-0.1,0.4-0.21,0.6-0.32c0.21-0.12,0.43-0.21,0.66-0.3c0.23-0.09,0.47-0.18,0.71-0.27c0.49-0.14,1-0.29,1.54-0.36 c0.53-0.1,1.08-0.11,1.62-0.14c0.55,0.03,1.1,0.03,1.62,0.14c0.53,0.06,1.05,0.22,1.54,0.36c0.24,0.08,0.48,0.17,0.71,0.27 c0.23,0.09,0.45,0.18,0.66,0.3c0.21,0.11,0.41,0.22,0.6,0.32c0.19,0.11,0.37,0.24,0.53,0.35c0.17,0.12,0.33,0.22,0.47,0.34 c0.14,0.12,0.27,0.24,0.4,0.35c0.12,0.11,0.24,0.21,0.34,0.31c0.1,0.1,0.18,0.21,0.26,0.29c0.31,0.36,0.46,0.58,0.46,0.58 c0.51,0.7,0.35,1.69-0.36,2.19c-0.43,0.31-0.96,0.37-1.43,0.21l-0.29-0.1c0,0-0.19-0.07-0.49-0.2c-0.08-0.03-0.15-0.07-0.25-0.11 c-0.1-0.03-0.19-0.07-0.3-0.11c-0.21-0.08-0.44-0.17-0.7-0.24c-0.13-0.04-0.26-0.09-0.4-0.13c-0.14-0.03-0.28-0.07-0.43-0.11 c-0.07-0.02-0.15-0.04-0.22-0.06c-0.08-0.01-0.15-0.03-0.23-0.04c-0.16-0.03-0.31-0.07-0.47-0.1c-0.33-0.04-0.66-0.11-1-0.12 c-0.34-0.04-0.69-0.03-1.03-0.05c-0.35,0.02-0.69,0.01-1.03,0.05c-0.34,0.02-0.67,0.09-1,0.12c-0.16,0.03-0.32,0.07-0.47,0.1 c-0.08,0.01-0.16,0.03-0.23,0.04c-0.07,0.02-0.15,0.04-0.22,0.06c-0.15,0.04-0.29,0.07-0.43,0.11c-0.14,0.04-0.27,0.09-0.4,0.13 c-0.13,0.04-0.25,0.08-0.37,0.11c-0.1,0.04-0.2,0.07-0.29,0.1c-0.09,0.03-0.18,0.06-0.27,0.09c-0.1,0.04-0.2,0.1-0.29,0.14 c-0.36,0.18-0.57,0.27-0.57,0.27c-0.83,0.34-1.77-0.05-2.11-0.87C25.56,51.53,25.64,50.96,25.93,50.52z" fill="#6D4C41"/>
      <path d="M71.99,52.92c0,0-0.21-0.09-0.57-0.27c-0.09-0.04-0.19-0.1-0.29-0.14 c-0.09-0.02-0.18-0.06-0.27-0.09c-0.09-0.03-0.19-0.07-0.29-0.1c-0.12-0.04-0.24-0.07-0.37-0.11c-0.13-0.04-0.26-0.09-0.39-0.13 c-0.14-0.03-0.28-0.07-0.43-0.11c-0.07-0.02-0.15-0.04-0.22-0.06c-0.08-0.01-0.15-0.03-0.23-0.04c-0.16-0.03-0.31-0.07-0.47-0.1 c-0.33-0.04-0.66-0.11-1-0.12c-0.34-0.04-0.69-0.03-1.03-0.05c-0.35,0.02-0.69,0.01-1.03,0.05c-0.34,0.02-0.67,0.09-1,0.12 c-0.16,0.03-0.32,0.07-0.47,0.1c-0.08,0.01-0.16,0.03-0.23,0.04c-0.07,0.02-0.15,0.04-0.22,0.06c-0.15,0.04-0.29,0.08-0.43,0.11 c-0.14,0.04-0.27,0.09-0.4,0.13c-0.26,0.07-0.49,0.16-0.7,0.24c-0.1,0.04-0.2,0.08-0.3,0.11c-0.09,0.04-0.17,0.08-0.25,0.11 c-0.3,0.13-0.49,0.2-0.49,0.2l-0.28,0.1c-0.82,0.29-1.72-0.15-2-0.97c-0.17-0.5-0.08-1.03,0.21-1.44c0,0,0.15-0.22,0.46-0.58 c0.08-0.09,0.16-0.19,0.26-0.29c0.1-0.1,0.22-0.2,0.34-0.31c0.12-0.11,0.26-0.23,0.4-0.35c0.14-0.12,0.31-0.22,0.47-0.34 c0.17-0.12,0.34-0.24,0.53-0.35c0.19-0.1,0.4-0.21,0.6-0.32c0.21-0.12,0.43-0.21,0.66-0.3c0.23-0.09,0.47-0.18,0.71-0.27 c0.49-0.14,1-0.29,1.54-0.36c0.53-0.1,1.08-0.11,1.62-0.14c0.55,0.03,1.1,0.03,1.62,0.14c0.54,0.06,1.05,0.22,1.54,0.36 c0.24,0.08,0.48,0.17,0.71,0.27c0.23,0.09,0.45,0.18,0.66,0.3c0.21,0.11,0.41,0.22,0.6,0.32c0.19,0.11,0.36,0.24,0.53,0.35 c0.17,0.12,0.32,0.22,0.48,0.35c0.15,0.13,0.3,0.26,0.43,0.38c0.13,0.12,0.26,0.23,0.36,0.33c0.09,0.1,0.15,0.18,0.22,0.26 c0.25,0.31,0.38,0.51,0.38,0.51c0.5,0.74,0.31,1.74-0.43,2.25C73.06,53.08,72.48,53.12,71.99,52.92z" fill="#6D4C41"/>
    </g>
    <path id="nose_1_" d="M53.8,67.85c-0.11-0.04-0.21-0.07-0.32-0.08H46.4c-0.11,0.01-0.22,0.04-0.32,0.08 c-0.64,0.26-0.99,0.92-0.69,1.63c0.3,0.71,1.71,2.69,4.55,2.69s4.25-1.99,4.55-2.69C54.79,68.78,54.44,68.11,53.8,67.85z" fill="#E59600"/>
    <path id="mouth_1_" d="M58.47,75.94c-3.19,1.89-13.63,1.89-16.81,0c-1.83-1.09-3.7,0.58-2.94,2.24 c0.75,1.63,6.44,5.42,11.37,5.42s10.55-3.79,11.3-5.42C62.14,76.51,60.3,74.85,58.47,75.94z" fill="#795548"/>
  </g>
  <g id="hairGroup">
    <path id="hair_7_" d="M49.96,4.55L49.96,4.55c-0.01,0-0.01,0-0.02,0s-0.01,0-0.02,0v0 C4.49,4.79,13.79,56.69,13.79,56.69s2.04,5.35,2.97,7.71c0.13,0.34,0.63,0.3,0.71-0.05c0.97-4.34,4.46-19.73,6.22-24.4 c1.04-2.76,3.9-4.36,6.8-3.83c4.45,0.81,11.55,1.81,19.37,1.81c0.03,0,0.06,0,0.08,0s0.06,0,0.08,0c7.83,0,14.92-1,19.37-1.81 c2.9-0.53,5.76,1.08,6.79,3.83c1.75,4.66,5.22,19.96,6.2,24.36c0.08,0.36,0.58,0.39,0.71,0.05l2.98-7.67 C86.09,56.69,95.4,4.79,49.96,4.55z" fill="#543930"/>
    <radialGradient id="hairHighlights_1_" cx="49.9415" cy="80.3828" gradientTransform="matrix(1 0 0 -1.1282 0 138.304)" gradientUnits="userSpaceOnUse" r="38.0925">
      <stop offset="0.7945" stop-color="#6D4C41" stop-opacity="0"/>
      <stop offset="1" stop-color="#6D4C41"/>
    </radialGradient>
    <path id="hairHighlights" d="M86.09,56.69c0,0,9.31-51.9-36.13-52.14v0 c-0.01,0-0.01,0-0.02,0h0c-0.01,0-0.01,0-0.02,0l0,0c-0.71,0-1.4,0.02-2.08,0.05c-1.35,0.06-2.66,0.16-3.92,0.31 c-0.01,0-0.03,0-0.04,0c-0.09,0.01-0.17,0.03-0.26,0.04C5.38,9.76,13.79,56.69,13.79,56.69l2.98,7.68c0.13,0.34,0.62,0.31,0.7-0.05 c0.98-4.39,4.46-19.71,6.22-24.37c1.04-2.76,3.9-4.36,6.8-3.83c4.45,0.81,11.55,1.81,19.37,1.81c0.03,0,0.06,0,0.08,0 s0.06,0,0.08,0c7.83,0,14.92-1,19.37-1.81c2.9-0.53,5.76,1.08,6.79,3.83c1.76,4.68,5.25,20.1,6.21,24.42 c0.08,0.36,0.57,0.39,0.7,0.05C84.04,62.06,86.09,56.69,86.09,56.69z" fill="url(#hairHighlights_1_)"/>
  </g>
  <g id="mechanic_x5F_hat">
    <linearGradient id="SVGID_5_" gradientTransform="matrix(1 0 0 -1 0 128)" gradientUnits="userSpaceOnUse" x1="49.9959" x2="49.9959" y1="89.1606" y2="129.3776">
      <stop offset="0" stop-color="#0068B5"/>
      <stop offset="0.807" stop-color="#4C8EEA"/>
      <stop offset="1" stop-color="#5E97F6"/>
    </linearGradient>
    <path d="M49.73,4.55c22.8,0,36.44,13.09,37.27,40.22c0,0-9.75-8.02-36.77-8.02 c-29.25,0-37.26,8.54-37.23,7.6c1.03-27.27,14.29-39.8,37.23-39.8L49.73,4.55z" fill="url(#SVGID_5_)"/>
    <linearGradient id="SVGID_6_" gradientTransform="matrix(1 0 0 -1 0 128)" gradientUnits="userSpaceOnUse" x1="49.725" x2="49.725" y1="82.5772" y2="108.3329">
      <stop offset="0" stop-color="#0068B5"/>
      <stop offset="1" stop-color="#5E97F6"/>
    </linearGradient>
    <path d="M26.93,34.41c0-18.74,8.97-28.81,22.8-28.81s22.8,10.47,22.8,28.81 c0,14.9-10.78,3.17-22.8,3.17S26.93,49.32,26.93,34.41z" fill="url(#SVGID_6_)"/>
    <path d="M50.08,28.44c-21.77,0-32.21,11.89-32.21,11.89c-0.02,1.97,2.2,5.52,7.25,6.33 c6.95,1.12,11.44-4.5,24.85-4.5c0.03,0,0.05,0,0.07,0v-0.03l0.04,0.03c0.03,0,0.05,0,0.07,0c13.41,0,17.89,5.61,24.85,4.5 c5.05-0.81,6.89-3.85,6.87-5.81C81.87,40.85,72.11,28.44,50.08,28.44z" fill="#5E97F6"/>
  </g>
</svg>

<svg viewBox="0 0 128 128" xmlns="http://www.w3.org/2000/svg">
  <defs>
    <linearGradient id="wrench_1_" gradientTransform="matrix(1 0 0 -1 0 0)" gradientUnits="userSpaceOnUse" x1="110.1252" x2="98.8694" y1="-52.5131" y2="-123.0246">
      <stop offset="0" stop-color="#90A4AE"/>
      <stop offset="0.2674" stop-color="#889DA8"/>
      <stop offset="0.5844" stop-color="#78909C"/>
      <stop offset="1" stop-color="#607D8B"/>
    </linearGradient>
    <linearGradient id="SVGID_1_" gradientTransform="matrix(1 0 0 -1 0 0)" gradientUnits="userSpaceOnUse" x1="50.005" x2="50.005" y1="-95.6999" y2="-131.1308">
      <stop offset="3.200000e-03" stop-color="#303F9F"/>
      <stop offset="0.4718" stop-color="#273492"/>
      <stop offset="1" stop-color="#1A237E"/>
    </linearGradient>
    <linearGradient id="SVGID_4_" gradientTransform="matrix(1 0 0 -1 0 0)" gradientUnits="userSpaceOnUse" x1="86.7116" x2="111.8949" y1="-107.4559" y2="-107.4559">
      <stop offset="0" stop-color="#FFB300"/>
      <stop offset="0.5" stop-color="#FFCA28"/>
    </linearGradient>
    <radialGradient id="hairHighlights_1_" cx="49.9415" cy="-42.205394" gradientTransform="matrix(1 0 0 -1.1282 0 0)" gradientUnits="userSpaceOnUse" r="38.0925">
      <stop offset="0.7945" stop-color="#6D4C41" stop-opacity="0"/>
      <stop offset="1" stop-color="#6D4C41"/>
    </radialGradient>
    <linearGradient id="SVGID_5_" gradientTransform="matrix(1 0 0 -1 0 0)" gradientUnits="userSpaceOnUse" x1="49.9959" x2="49.9959" y1="-38.8394" y2="1.3776">
      <stop offset="0" stop-color="#0068B5"/>
      <stop offset="0.807" stop-color="#4C8EEA"/>
      <stop offset="1" stop-color="#5E97F6"/>
    </linearGradient>
    <linearGradient id="SVGID_6_" gradientTransform="matrix(1 0 0 -1 0 0)" gradientUnits="userSpaceOnUse" x1="49.725" x2="49.725" y1="-45.4228" y2="-19.6671">
      <stop offset="0" stop-color="#0068B5"/>
      <stop offset="1" stop-color="#5E97F6"/>
    </linearGradient>
    <linearGradient id="SVGID_2_" gradientTransform="matrix(1 0 0 -1 0 0)" gradientUnits="userSpaceOnUse" x1="30.6406" x2="41.2453" y1="-99.2506" y2="-125.204">
      <stop offset="0" stop-color="#5C6BC0"/>
      <stop offset="1" stop-color="#3949AB"/>
    </linearGradient>
    <linearGradient id="SVGID_3_" gradientTransform="matrix(1 0 0 -1 0 0)" gradientUnits="userSpaceOnUse" x1="69.0202" x2="61.2063" y1="-98.0274" y2="-125.2367">
      <stop offset="0" stop-color="#5C6BC0"/>
      <stop offset="1" stop-color="#3949AB"/>
    </linearGradient>
  </defs>
  <path d="M96,120.76 L96,123.96 L4,123.96 L4,120.76 C4,112.82 8.68,106.97 15.87,102.94 C24.77,97.94 37.52,95.72 50,95.7 C62.48,95.68 75.15,98.19 84.02,103.24 C91.29,107.37 96,113.21 96,120.76 Z" fill="url(#SVGID_1_)"/>
  <path d="M50,92.33 L40.92,92.33 L40.92,102.31 C40.92,106.82 44.62,110.48 49.18,110.48 L50.83,110.48 C55.39,110.48 59.09,106.82 59.09,102.31 L59.09,92.33 C59.09,92.33 50,92.33 50,92.33 Z" fill="#E59600"/>
  <path d="M104.2,104.61 L100.16,123.96 L101.69,123.96 L103.22,123.96 L112.24,123.96 L113.74,123.96 L115.24,123.96 L115.24,120.76 C115.25,114.01 110.98,108.62 104.2,104.61 Z" fill="#1B2B8F"/>
  <path id="undershirt" d="M59.31,104.52 L39.41,104.52 L47.31,123.96 L52.35,123.96 Z" fill="#F5F5F5"/>
  <path d="M40.88,95.93 L33.1,96.83 L25.1,114.08 L35.98,109.79 L45.53,123.96 L46.74,123.96 L47.22,123.96 L48.25,123.96 Z" fill="url(#SVGID_2_)"/>
  <path d="M66.91,96.83 L59.12,95.93 L51.76,123.96 L52.79,123.96 L53.53,123.96 L54.76,123.96 L64.81,109.96 L74.91,114.08 Z" fill="url(#SVGID_3_)"/>
  <path id="wrench" d="M121.82,56.71 C121.48,56.11 120.9,55.83 120.33,55.83 C119.57,55.83 118.83,56.32 118.66,57.21 L117.2,65.11 C117.1,65.64 116.76,66.1 116.27,66.33 L108.19,70.2 C107.96,70.31 107.71,70.37 107.46,70.37 C107,70.37 106.56,70.19 106.23,69.84 L100.07,63.34 C99.7,62.95 99.54,62.4 99.63,61.87 L101.09,53.97 C101.3,52.83 100.4,51.97 99.41,51.97 C99.04,51.97 98.66,52.09 98.32,52.37 C95.37,54.82 93.2,58.34 92.43,62.49 C91.34,68.39 93.34,74.1 97.25,77.82 C99.01,79.5 99.85,81.92 99.41,84.31 L92.08,123.97 L93.1,123.97 L94.12,123.97 L100.36,123.97 L101.38,123.97 L102.4,123.97 L109.39,86.15 C109.83,83.76 111.48,81.8 113.72,80.86 C118.7,78.78 122.61,74.17 123.7,68.26 C124.47,64.11 123.7,60.04 121.82,56.71 Z" fill="url(#wrench_1_)"/>
  <path d="M94.5,117.31 L92.6,119.46 C92.6,119.46 86.92,118.25 87.59,114.96 C87.75,114.18 89.15,112.52 89.15,112.52 C89.15,112.52 86.3,110.17 86.75,108.58 C87.2,107.01 89.92,105.79 89.92,105.79 C89.92,105.79 87.81,104.53 88.64,102.16 C89.21,100.54 92.17,100 92.17,100 C92.17,100 89.41,95.95 95.02,95.03 C96.79,94.74 100.76,95.33 104.32,97.96 C107.88,100.59 109.51,102.17 111.15,105.63 C113.65,110.88 109.23,119.88 105.84,119.96 C103.02,120.02 94.5,117.31 94.5,117.31 Z" fill="url(#SVGID_4_)"/>
  <path d="M77.27,50.23 L69.9,50.23 L29.98,50.23 L22.61,50.23 C16.72,50.23 11.9,55.36 11.9,61.64 C11.9,67.92 16.72,73.05 22.61,73.05 L29.98,73.05 L69.9,73.05 L77.27,73.05 C83.16,73.05 87.98,67.91 87.98,61.64 C87.98,55.37 83.16,50.23 77.27,50.23 Z" fill="#E59600"/>
  <path d="M49.94,10.86 L49.94,10.86 L49.94,10.86 C32.54,10.86 16.42,29.47 16.42,56.26 C16.42,82.9 33.03,96.07 49.94,96.07 C66.85,96.07 83.46,82.9 83.46,56.26 C83.46,29.47 67.34,10.86 49.94,10.86 Z" fill="#FFCA28"/>
  <path d="M39.06,58.6 A4.93 5.1 0 1 1 29.2,58.6 A4.93 5.1 0 1 1 39.06,58.6 Z" fill="#404040"/>
  <path d="M70.21,58.6 A4.93 5.1 0 1 1 60.35,58.6 A4.93 5.1 0 1 1 70.21,58.6 Z" fill="#404040"/>
  <path d="M25.93,50.52 C25.93,50.52 26.06,50.33 26.31,50.01 C26.38,49.93 26.43,49.85 26.53,49.75 C26.64,49.64 26.76,49.53 26.89,49.42 C27.03,49.3 27.17,49.18 27.32,49.04 C27.47,48.91 27.63,48.82 27.8,48.69 C27.97,48.57 28.14,48.45 28.33,48.34 C28.52,48.24 28.73,48.13 28.93,48.02 C29.14,47.9 29.36,47.81 29.59,47.72 C29.82,47.63 30.06,47.54 30.3,47.45 C30.79,47.31 31.3,47.16 31.84,47.09 C32.37,46.99 32.92,46.98 33.46,46.95 C34.01,46.98 34.56,46.98 35.08,47.09 C35.61,47.15 36.13,47.31 36.62,47.45 C36.86,47.53 37.1,47.62 37.33,47.72 C37.56,47.81 37.78,47.9 37.99,48.02 C38.2,48.13 38.4,48.24 38.59,48.34 C38.78,48.45 38.96,48.58 39.12,48.69 C39.29,48.81 39.45,48.91 39.59,49.03 C39.73,49.15 39.86,49.27 39.99,49.38 C40.11,49.49 40.23,49.59 40.33,49.69 C40.43,49.79 40.51,49.9 40.59,49.98 C40.9,50.34 41.05,50.56 41.05,50.56 C41.56,51.26 41.4,52.25 40.69,52.75 C40.26,53.06 39.73,53.12 39.26,52.96 L38.97,52.86 C38.97,52.86 38.78,52.79 38.48,52.66 C38.4,52.63 38.33,52.59 38.23,52.55 C38.13,52.52 38.04,52.48 37.93,52.44 C37.72,52.36 37.49,52.27 37.23,52.2 C37.1,52.16 36.97,52.11 36.83,52.07 C36.69,52.04 36.55,52 36.4,51.96 C36.33,51.94 36.25,51.92 36.18,51.9 C36.1,51.89 36.03,51.87 35.95,51.86 C35.79,51.83 35.64,51.79 35.48,51.76 C35.15,51.72 34.82,51.65 34.48,51.64 C34.14,51.6 33.79,51.61 33.45,51.59 C33.1,51.61 32.76,51.6 32.42,51.64 C32.08,51.66 31.75,51.73 31.42,51.76 C31.26,51.79 31.1,51.83 30.95,51.86 C30.87,51.87 30.79,51.89 30.72,51.9 C30.65,51.92 30.57,51.94 30.5,51.96 C30.35,52 30.21,52.03 30.07,52.07 C29.93,52.11 29.8,52.16 29.67,52.2 C29.54,52.24 29.42,52.28 29.3,52.31 C29.2,52.35 29.1,52.38 29.01,52.41 C28.92,52.44 28.83,52.47 28.74,52.5 C28.64,52.54 28.54,52.6 28.45,52.64 C28.09,52.82 27.88,52.91 27.88,52.91 C27.05,53.25 26.11,52.86 25.77,52.04 C25.56,51.53 25.64,50.96 25.93,50.52 Z" fill="#6D4C41"/>
  <path d="M71.99,52.92 C71.99,52.92 71.78,52.83 71.42,52.65 C71.33,52.61 71.23,52.55 71.13,52.51 C71.04,52.49 70.95,52.45 70.86,52.42 C70.77,52.39 70.67,52.35 70.57,52.32 C70.45,52.28 70.33,52.25 70.2,52.21 C70.07,52.17 69.94,52.12 69.81,52.08 C69.67,52.05 69.53,52.01 69.38,51.97 C69.31,51.95 69.23,51.93 69.16,51.91 C69.08,51.9 69.01,51.88 68.93,51.87 C68.77,51.84 68.62,51.8 68.46,51.77 C68.13,51.73 67.8,51.66 67.46,51.65 C67.12,51.61 66.77,51.62 66.43,51.6 C66.08,51.62 65.74,51.61 65.4,51.65 C65.06,51.67 64.73,51.74 64.4,51.77 C64.24,51.8 64.08,51.84 63.93,51.87 C63.85,51.88 63.77,51.9 63.7,51.91 C63.63,51.93 63.55,51.95 63.48,51.97 C63.33,52.01 63.19,52.05 63.05,52.08 C62.91,52.12 62.78,52.17 62.65,52.21 C62.39,52.28 62.16,52.37 61.95,52.45 C61.85,52.49 61.75,52.53 61.65,52.56 C61.56,52.6 61.48,52.64 61.4,52.67 C61.1,52.8 60.91,52.87 60.91,52.87 L60.63,52.97 C59.81,53.26 58.91,52.82 58.63,52 C58.46,51.5 58.55,50.97 58.84,50.56 C58.84,50.56 58.99,50.34 59.3,49.98 C59.38,49.89 59.46,49.79 59.56,49.69 C59.66,49.59 59.78,49.49 59.9,49.38 C60.02,49.27 60.16,49.15 60.3,49.03 C60.44,48.91 60.61,48.81 60.77,48.69 C60.94,48.57 61.11,48.45 61.3,48.34 C61.49,48.24 61.7,48.13 61.9,48.02 C62.11,47.9 62.33,47.81 62.56,47.72 C62.79,47.63 63.03,47.54 63.27,47.45 C63.76,47.31 64.27,47.16 64.81,47.09 C65.34,46.99 65.89,46.98 66.43,46.95 C66.98,46.98 67.53,46.98 68.05,47.09 C68.59,47.15 69.1,47.31 69.59,47.45 C69.83,47.53 70.07,47.62 70.3,47.72 C70.53,47.81 70.75,47.9 70.96,48.02 C71.17,48.13 71.37,48.24 71.56,48.34 C71.75,48.45 71.92,48.58 72.09,48.69 C72.26,48.81 72.41,48.91 72.57,49.04 C72.72,49.17 72.87,49.3 73,49.42 C73.13,49.54 73.26,49.65 73.36,49.75 C73.45,49.85 73.51,49.93 73.58,50.01 C73.83,50.32 73.96,50.52 73.96,50.52 C74.46,51.26 74.27,52.26 73.53,52.77 C73.06,53.08 72.48,53.12 71.99,52.92 Z" fill="#6D4C41"/>
  <path id="nose_1_" d="M53.8,67.85 C53.69,67.81 53.59,67.78 53.48,67.77 L46.4,67.77 C46.29,67.78 46.18,67.81 46.08,67.85 C45.44,68.11 45.09,68.77 45.39,69.48 C45.69,70.19 47.1,72.17 49.94,72.17 C52.78,72.17 54.19,70.18 54.49,69.48 C54.79,68.78 54.44,68.11 53.8,67.85 Z" fill="#E59600"/>
  <path id="mouth_1_" d="M58.47,75.94 C55.28,77.83 44.84,77.83 41.66,75.94 C39.83,74.85 37.96,76.52 38.72,78.18 C39.47,79.81 45.16,83.6 50.09,83.6 C55.02,83.6 60.64,79.81 61.39,78.18 C62.14,76.51 60.3,74.85 58.47,75.94 Z" fill="#795548"/>
  <path id="hair_7_" d="M49.96,4.55 L49.96,4.55 C49.95,4.55 49.95,4.55 49.94,4.55 C49.93,4.55 49.93,4.55 49.92,4.55 L49.92,4.55 C4.49,4.79 13.79,56.69 13.79,56.69 C13.79,56.69 15.83,62.04 16.76,64.4 C16.89,64.74 17.39,64.7 17.47,64.35 C18.44,60.01 21.93,44.62 23.69,39.95 C24.73,37.19 27.59,35.59 30.49,36.12 C34.94,36.93 42.04,37.93 49.86,37.93 C49.89,37.93 49.92,37.93 49.94,37.93 C49.96,37.93 50,37.93 50.02,37.93 C57.85,37.93 64.94,36.93 69.39,36.12 C72.29,35.59 75.15,37.2 76.18,39.95 C77.93,44.61 81.4,59.91 82.38,64.31 C82.46,64.67 82.96,64.7 83.09,64.36 L86.07,56.69 C86.09,56.69 95.4,4.79 49.96,4.55 Z" fill="#543930"/>
  <path id="hairHighlights" d="M86.09,56.69 C86.09,56.69 95.4,4.79 49.96,4.55 L49.96,4.55 C49.95,4.55 49.95,4.55 49.94,4.55 L49.94,4.55 C49.93,4.55 49.93,4.55 49.92,4.55 L49.92,4.55 C49.21,4.55 48.52,4.57 47.84,4.6 C46.49,4.66 45.18,4.76 43.92,4.91 C43.91,4.91 43.89,4.91 43.88,4.91 C43.79,4.92 43.71,4.94 43.62,4.95 C5.38,9.76 13.79,56.69 13.79,56.69 L16.77,64.37 C16.9,64.71 17.39,64.68 17.47,64.32 C18.45,59.93 21.93,44.61 23.69,39.95 C24.73,37.19 27.59,35.59 30.49,36.12 C34.94,36.93 42.04,37.93 49.86,37.93 C49.89,37.93 49.92,37.93 49.94,37.93 C49.96,37.93 50,37.93 50.02,37.93 C57.85,37.93 64.94,36.93 69.39,36.12 C72.29,35.59 75.15,37.2 76.18,39.95 C77.94,44.63 81.43,60.05 82.39,64.37 C82.47,64.73 82.96,64.76 83.09,64.42 C84.04,62.06 86.09,56.69 86.09,56.69 Z" fill="url(#hairHighlights_1_)"/>
  <path d="M49.73,4.55 C72.53,4.55 86.17,17.64 87,44.77 C87,44.77 77.25,36.75 50.23,36.75 C20.98,36.75 12.97,45.29 13,44.35 C14.03,17.08 27.29,4.55 50.23,4.55 L49.73,4.55 Z" fill="url(#SVGID_5_)"/>
  <path d="M26.93,34.41 C26.93,15.67 35.9,5.6 49.73,5.6 C63.56,5.6 72.53,16.07 72.53,34.41 C72.53,49.31 61.75,37.58 49.73,37.58 C37.71,37.58 26.93,49.32 26.93,34.41 Z" fill="url(#SVGID_6_)"/>
  <path d="M50.08,28.44 C28.31,28.44 17.87,40.33 17.87,40.33 C17.85,42.3 20.07,45.85 25.12,46.66 C32.07,47.78 36.56,42.16 49.97,42.16 C50,42.16 50.02,42.16 50.04,42.16 L50.04,42.13 L50.08,42.16 C50.11,42.16 50.13,42.16 50.15,42.16 C63.56,42.16 68.04,47.77 75,46.66 C80.05,45.85 81.89,42.81 81.87,40.85 C81.87,40.85 72.11,28.44 50.08,28.44 Z" fill="#5E97F6"/>
</svg>
